exports/population-by-per-capita-household-income-799fb6381a576c562c2e541a79330d7d_v1_850x600.svg

<svg xmlns="http://www.w3.org/2000/svg" version="1.1" style="background-color:#fff;-webkit-font-smoothing:antialiased" width="850" height="600" font-family="'Helvetica Neue',Helvetica,Arial,sans-serif" font-size="18" text-rendering="optimizeLegibility"><g class="ChartTab"><g class="HeaderView"><g opacity=".8" transform="matrix(.31 0 0 .31 770 15)"><a xmlns:xlink="http://www.w3.org/1999/xlink" xlink:href="https://ourworldindata.org" target="_blank"><g><path fill="#1B2543" d="M0 0h211.2v130.1H0z"/><path fill="#E63912" d="M0 112.2h211.2v17.9H0z"/><g><path fill="none" d="M1.2 12.3h210.2v99.2H1.2z"/><path fill="#FFF" d="M37.8 32.2c0 12.7-7.7 19.4-17.1 19.4-9.7 0-16.6-7.5-16.6-18.7 0-11.7 7.3-19.3 17.1-19.3 10.1.1 16.6 7.7 16.6 18.6zm-28.6.6c0 7.9 4.3 14.9 11.8 14.9 7.5 0 11.8-6.9 11.8-15.3 0-7.3-3.8-14.9-11.8-14.9-7.9 0-11.8 7.3-11.8 15.3zM62.7 43.8c0 2.7.1 5.1.2 7.2h-4.3l-.3-4.3h-.1c-1.3 2.1-4 4.9-8.8 4.9-4.2 0-9.1-2.3-9.1-11.6V24.6h4.8v14.6c0 5 1.5 8.4 5.9 8.4 3.2 0 5.5-2.2 6.3-4.4.3-.7.4-1.6.4-2.5V24.6h4.8v19.2zM67.3 32.8c0-3.1-.1-5.8-.2-8.2h4.2l.2 5.2h.2c1.2-3.5 4.1-5.8 7.3-5.8.5 0 .9.1 1.4.2v4.5c-.5-.1-1-.2-1.6-.2-3.4 0-5.8 2.6-6.5 6.2-.1.7-.2 1.4-.2 2.2V51h-4.8V32.8zM95.4 51L86 14.2h5l4.4 18.6c1.1 4.6 2.1 9.2 2.7 12.7h.1c.6-3.7 1.8-8 3-12.8l4.9-18.5h5l4.5 18.7c1 4.4 2 8.7 2.6 12.6h.1c.8-4 1.8-8.1 3-12.7l4.9-18.5h4.9L120.6 51h-5L111 31.9c-1.1-4.7-1.9-8.3-2.4-12h-.1c-.7 3.7-1.5 7.3-2.8 12L100.4 51h-5zM154.9 37.6c0 9.8-6.8 14-13.2 14-7.2 0-12.7-5.2-12.7-13.6 0-8.8 5.8-14 13.1-14 7.7 0 12.8 5.5 12.8 13.6zm-21 .3c0 5.8 3.3 10.1 8 10.1 4.6 0 8-4.3 8-10.3 0-4.5-2.2-10.1-7.9-10.1s-8.1 5.2-8.1 10.3zM158.2 32.8c0-3.1-.1-5.8-.2-8.2h4.2l.2 5.2h.2c1.2-3.5 4.1-5.8 7.3-5.8.5 0 .9.1 1.4.2v4.5c-.5-.1-1-.2-1.6-.2-3.4 0-5.8 2.6-6.5 6.2-.1.7-.2 1.4-.2 2.2V51h-4.8V32.8zM173.5 12.3h4.8V51h-4.8V12.3zM206.5 12.3v31.9c0 2.3.1 5 .2 6.8h-4.3l-.2-4.6h-.2c-1.5 2.9-4.7 5.2-9 5.2-6.4 0-11.3-5.4-11.3-13.4-.1-8.8 5.4-14.2 11.9-14.2 4 0 6.8 1.9 8 4h.1V12.3h4.8zm-4.8 23.1c0-.6-.1-1.4-.2-2a7 7 0 00-6.9-5.6c-5 0-7.9 4.4-7.9 10.2 0 5.3 2.6 9.8 7.8 9.8 3.2 0 6.2-2.1 7.1-5.7.2-.7.2-1.3.2-2.1v-4.6zM42.8 64c.1 1.6-1.1 2.9-3.1 2.9-1.7 0-2.9-1.3-2.9-2.9 0-1.7 1.3-3 3-3 1.9 0 3 1.3 3 3zm-5.4 33.8V71.4h4.8v26.4h-4.8zM47.5 78.6c0-2.7-.1-5-.2-7.1h4.3l.3 4.4h.1c1.3-2.5 4.4-5 8.8-5 3.7 0 9.4 2.2 9.4 11.2v15.8h-4.8V82.6c0-4.3-1.6-7.8-6.1-7.8-3.2 0-5.6 2.2-6.5 4.9-.2.6-.3 1.4-.3 2.2v15.9h-4.8V78.6zM84 61.6c2.9-.4 6.3-.8 10.1-.8 6.8 0 11.7 1.6 14.9 4.6 3.3 3 5.2 7.3 5.2 13.2 0 6-1.9 10.9-5.3 14.3-3.4 3.4-9.1 5.3-16.3 5.3-3.4 0-6.2-.2-8.6-.4V61.6zm4.8 32.5c1.2.2 3 .3 4.8.3 10.2 0 15.7-5.7 15.7-15.6.1-8.7-4.9-14.2-14.9-14.2-2.5 0-4.3.2-5.6.5v29zM132.1 97.8l-.4-3.3h-.2a9.79 9.79 0 01-8.1 3.9c-5.4 0-8.1-3.8-8.1-7.6 0-6.4 5.7-9.9 15.9-9.8v-.5c0-2.2-.6-6.1-6-6.1-2.5 0-5 .8-6.9 2l-1.1-3.2c2.2-1.4 5.4-2.3 8.7-2.3 8.1 0 10.1 5.5 10.1 10.8v9.9c0 2.3.1 4.5.4 6.3h-4.3zm-.7-13.4c-5.3-.1-11.2.8-11.2 5.9 0 3.1 2.1 4.6 4.5 4.6 3.4 0 5.6-2.2 6.4-4.4.2-.5.3-1 .3-1.5v-4.6zM146.6 63.9v7.6h6.9v3.7h-6.9v14.2c0 3.3.9 5.1 3.6 5.1 1.3 0 2.2-.2 2.8-.3l.2 3.6c-.9.4-2.4.7-4.3.7-2.2 0-4-.7-5.2-2-1.4-1.4-1.9-3.8-1.9-6.9V75.1h-4.1v-3.7h4.1v-6.3l4.8-1.2zM171.4 97.8l-.4-3.3h-.2a9.79 9.79 0 01-8.1 3.9c-5.4 0-8.1-3.8-8.1-7.6 0-6.4 5.7-9.9 15.9-9.8v-.5c0-2.2-.6-6.1-6-6.1-2.5 0-5 .8-6.9 2l-1.1-3.2c2.2-1.4 5.4-2.3 8.7-2.3 8.1 0 10.1 5.5 10.1 10.8v9.9c0 2.3.1 4.5.4 6.3h-4.3zm-.7-13.4c-5.3-.1-11.2.8-11.2 5.9 0 3.1 2.1 4.6 4.5 4.6 3.4 0 5.6-2.2 6.4-4.4.2-.5.3-1 .3-1.5v-4.6z"/></g></g></a></g><a href="https://ourworldindata.org/grapher/population-by-per-capita-household-income?country=USA" target="_blank"><text font-size="27" x="15" y="36.6" fill="#555"><tspan x="15" y="36.6">Population by per capita household income, United States</tspan></text></a><text font-size="14.4" x="15" y="55.5" fill="#666"><tspan x="15" y="55.52">Income brackets are in &apos;international dollars&apos; at constant 2011 PPP prices. This means all estimates account for</tspan><tspan x="15" y="71.36">cross-country differences in price levels, as well as for inflation.</tspan></text></g><g class="StackedArea"><defs><clipPath id="a"><path d="M97.6 0h820v925.2h-820z"/></clipPath></defs><g class="AxisBoxView"><g class="HorizontalAxis" fill="#666" text-anchor="middle" font-size="16.2"><text x="97.6" y="556.5">1981</text><text x="172.6" y="556.5">1985</text><text x="266.3" y="556.5">1990</text><text x="360.1" y="556.5">1995</text><text x="453.8" y="556.5">2000</text><text x="547.5" y="556.5">2005</text><text x="641.3" y="556.5">2010</text><text x="697.5" y="556.5">2013</text></g><g class="VerticalAxis" fill="#666" dominant-baseline="middle" text-anchor="end" font-size="16.2"><text x="92.6" y="535.3">0</text><text x="92.6" y="465.5">50 million</text><text x="92.6" y="395.7">100 million</text><text x="92.6" y="325.9">150 million</text><text x="92.6" y="256.1">200 million</text><text x="92.6" y="186.3">250 million</text><text x="92.6" y="116.5">300 million</text></g><g class="AxisGridLines"><path stroke="#ccc" d="M97.6 535.3h599.9"/><path stroke="#ddd" stroke-dasharray="3,2" d="M97.6 465.5h599.9M97.6 395.7h599.9M97.6 325.9h599.9M97.6 256.1h599.9M97.6 186.3h599.9M97.6 116.5h599.9"/></g><g class="AxisGridLines" stroke="#ddd" stroke-dasharray="3,2"><path d="M172.6 535.3V93.9M266.3 535.3V93.9M360.1 535.3V93.9M453.8 535.3V93.9M547.5 535.3V93.9M641.3 535.3V93.9"/></g></g><g clip-path="url(#a)"><g class="HeightedLegend clickable"><g class="legendMark"><path fill="#3360a9" d="M702.5 526.85h10v2.5h-10z"/><text font-size="14.4" x="717.5" y="532.4" fill="#333"><tspan x="717.5" y="532.42">below 1.25$ a day</tspan></text></g><g class="legendMark"><path fill="#ca2628" d="M702.5 512.45h10v2.5h-10z"/><text font-size="14.4" x="717.5" y="518" fill="#333"><tspan x="717.5" y="518.02">1.25 - 1.9$ a day</tspan></text></g><g class="legendMark"><path fill="#ffd53e" d="M702.5 498.05h10v2.5h-10z"/><text font-size="14.4" x="717.5" y="503.6" fill="#333"><tspan x="717.5" y="503.62">1.9 - 3.10$ a day</tspan></text></g><g class="legendMark"><path fill="#9ecc8a" d="M702.5 483.65h10v2.5h-10z"/><text font-size="14.4" x="717.5" y="489.2" fill="#333"><tspan x="717.5" y="489.22">3.10 - 10$ a day</tspan></text></g><g class="legendMark"><path fill="#34983f" d="M702.5 305.25h10v2.5h-10z"/><text font-size="14.4" x="717.5" y="310.8" fill="#333"><tspan x="717.5" y="310.82">above 10$ a day</tspan></text></g></g><g class="Areas"><path d="M97.6 534.2h168.7l56.3-.9 56.2-.5 56.2-.1 56.3-.7 56.2-.8 56.3-.1 37.5-.1 18.7-.1h37.5v4.4H97.6" fill="#3360a9" fill-opacity=".7" class="United-States_4-area"/><path d="M97.6 533.2l56.2-.1 56.3-.1h56.2l56.3-.1 56.2-.1 56.2-.1 56.3-.7 56.2-.8 56.3-.1 37.5-.1 18.7-.1h37.5H660l-18.7.1-37.5.1-56.3.1-56.2.8-56.3.7-56.2.1-56.2.5-56.3.9H97.6" fill="#ca2628" fill-opacity=".7" class="United-States_3-area"/><path d="M97.6 532.9l56.2.2 56.3-.1h56.2l56.3-.9 56.2-.6 56.2-.1 56.3-.8 56.2-.8 56.3-.2 37.5-.1H660l18.7-.1 18.8-.1v1.6H660l-18.7.1-37.5.1-56.3.1-56.2.8-56.3.7-56.2.1-56.2.1-56.3.1h-56.2l-56.3.1-56.2.1" fill="#ffd53e" fill-opacity=".7" class="United-States_2-area"/><path d="M97.6 522.2l56.2-.7 56.3-.9 56.2 1 56.3-1.6 56.2.3 56.2 1.6 56.3-.7 56.2-1 56.3-.9 37.5-1.3 18.7.4 18.7.3 18.8.4v10.2l-18.8.1-18.7.1h-18.7l-37.5.1-56.3.2-56.2.8-56.3.8-56.2.1-56.2.6-56.3.9h-56.2l-56.3.1-56.2-.2" fill="#9ecc8a" fill-opacity=".7" class="United-States_1-area"/><path d="M97.6 215l56.2-8.9 56.3-9 56.2-10.3 56.3-14.3 56.2-13.3 56.2-13.4 56.3-12 56.2-11 56.3-12 37.5-7.3 18.7-3.3 18.7-3.2 18.8-3.1v425.2l-18.8-.4-18.7-.3-18.7-.4-37.5 1.3-56.3.9-56.2 1-56.3.7-56.2-1.6-56.2-.3-56.3 1.6-56.2-1-56.3.9-56.2.7" fill="#34983f" fill-opacity=".7" class="United-States_0-area"/><path stroke-linecap="round" d="M97.6 534.2h168.7l56.3-.9 56.2-.5 56.2-.1 56.3-.7 56.2-.8 56.3-.1 37.5-.1 18.7-.1h37.5" stroke="#2B508D" stroke-opacity=".7" stroke-width=".5" fill="none" class="United-States_4-border"/><path stroke-linecap="round" d="M97.6 533.2l56.2-.1 56.3-.1h56.2l56.3-.1 56.2-.1 56.2-.1 56.3-.7 56.2-.8 56.3-.1 37.5-.1 18.7-.1h37.5" stroke="#A92021" stroke-opacity=".7" stroke-width=".5" fill="none" class="United-States_3-border"/><path stroke-linecap="round" d="M97.6 532.9l56.2.2 56.3-.1h56.2l56.3-.9 56.2-.6 56.2-.1 56.3-.8 56.2-.8 56.3-.2 37.5-.1H660l18.7-.1 18.8-.1" stroke="#D5B234" stroke-opacity=".7" stroke-width=".5" fill="none" class="United-States_2-border"/><path stroke-linecap="round" d="M97.6 522.2l56.2-.7 56.3-.9 56.2 1 56.3-1.6 56.2.3 56.2 1.6 56.3-.7 56.2-1 56.3-.9 37.5-1.3 18.7.4 18.7.3 18.8.4" stroke="#84AB73" stroke-opacity=".7" stroke-width=".5" fill="none" class="United-States_1-border"/><path stroke-linecap="round" d="M97.6 215l56.2-8.9 56.3-9 56.2-10.3 56.3-14.3 56.2-13.3 56.2-13.4 56.3-12 56.2-11 56.3-12 37.5-7.3 18.7-3.3 18.7-3.2 18.8-3.1" stroke="#2C7F35" stroke-opacity=".7" stroke-width=".5" fill="none" class="United-States_0-border"/></g></g></g><g class="SourcesFooter" fill="#777"><g class="clickable" fill="#777"><text font-size="12.6" x="15" y="581.6"><tspan x="15" y="581.58">Source: World Bank</tspan></text></g><text font-size="12.6" x="649" y="581.6"><tspan x="649.02" y="581.58"><a target="_blank" href="https://ourworldindata.org" fill="#777">OurWorldInData.org</a> • <a href="http://creativecommons.org/licenses/by-sa/4.0/deed.en_US" target="_blank" fill="#777">CC BY-SA</a></tspan></text></g></g></svg>

<svg xmlns="http://www.w3.org/2000/svg" version="1.1" style="font-family: 'Helvetica Neue', Helvetica, Arial, sans-serif; font-size: 18px; background-color: white; text-rendering: optimizeLegibility; -webkit-font-smoothing: antialiased;" width="850" height="600"><g class="ChartTab"><g class="HeaderView"><g opacity="0.8" transform="translate(770, 15) scale(0.31)"><a xmlns:xlink="http://www.w3.org/1999/xlink" xlink:href="https://ourworldindata.org" target="_blank"><g><rect x="0" y="0" fill="#1B2543" width="211.2" height="130.1"/><rect x="0" y="112.2" fill="#E63912" width="211.2" height="17.9"/><g><rect x="1.2" y="12.3" fill="none" width="210.2" height="99.2"/><path fill="#FFFFFF" d="M37.8,32.2c0,12.7-7.7,19.4-17.1,19.4c-9.7,0-16.6-7.5-16.6-18.7c0-11.7,7.3-19.3,17.1-19.3 C31.3,13.7,37.8,21.3,37.8,32.2z M9.2,32.8c0,7.9,4.3,14.9,11.8,14.9c7.5,0,11.8-6.9,11.8-15.3c0-7.3-3.8-14.9-11.8-14.9 C13.1,17.5,9.2,24.8,9.2,32.8z"/><path fill="#FFFFFF" d="M62.7,43.8c0,2.7,0.1,5.1,0.2,7.2h-4.3l-0.3-4.3h-0.1c-1.3,2.1-4,4.9-8.8,4.9c-4.2,0-9.1-2.3-9.1-11.6 V24.6h4.8v14.6c0,5,1.5,8.4,5.9,8.4c3.2,0,5.5-2.2,6.3-4.4c0.3-0.7,0.4-1.6,0.4-2.5V24.6h4.8V43.8z"/><path fill="#FFFFFF" d="M67.3,32.8c0-3.1-0.1-5.8-0.2-8.2h4.2l0.2,5.2h0.2c1.2-3.5,4.1-5.8,7.3-5.8c0.5,0,0.9,0.1,1.4,0.2v4.5 c-0.5-0.1-1-0.2-1.6-0.2c-3.4,0-5.8,2.6-6.5,6.2c-0.1,0.7-0.2,1.4-0.2,2.2V51h-4.8V32.8z"/><path fill="#FFFFFF" d="M95.4,51l-9.4-36.8h5l4.4,18.6c1.1,4.6,2.1,9.2,2.7,12.7h0.1c0.6-3.7,1.8-8,3-12.8l4.9-18.5h5l4.5,18.7 c1,4.4,2,8.7,2.6,12.6h0.1c0.8-4,1.8-8.1,3-12.7l4.9-18.5h4.9L120.6,51h-5L111,31.9c-1.1-4.7-1.9-8.3-2.4-12h-0.1 c-0.7,3.7-1.5,7.3-2.8,12L100.4,51H95.4z"/><path fill="#FFFFFF" d="M154.9,37.6c0,9.8-6.8,14-13.2,14c-7.2,0-12.7-5.2-12.7-13.6c0-8.8,5.8-14,13.1-14 C149.8,24,154.9,29.5,154.9,37.6z M133.9,37.9c0,5.8,3.3,10.1,8,10.1c4.6,0,8-4.3,8-10.3c0-4.5-2.2-10.1-7.9-10.1 C136.3,27.6,133.9,32.8,133.9,37.9z"/><path fill="#FFFFFF" d="M158.2,32.8c0-3.1-0.1-5.8-0.2-8.2h4.2l0.2,5.2h0.2c1.2-3.5,4.1-5.8,7.3-5.8c0.5,0,0.9,0.1,1.4,0.2v4.5 c-0.5-0.1-1-0.2-1.6-0.2c-3.4,0-5.8,2.6-6.5,6.2c-0.1,0.7-0.2,1.4-0.2,2.2V51h-4.8V32.8z"/><path fill="#FFFFFF" d="M173.5,12.3h4.8V51h-4.8V12.3z"/><path fill="#FFFFFF" d="M206.5,12.3v31.9c0,2.3,0.1,5,0.2,6.8h-4.3l-0.2-4.6H202c-1.5,2.9-4.7,5.2-9,5.2 c-6.4,0-11.3-5.4-11.3-13.4c-0.1-8.8,5.4-14.2,11.9-14.2c4,0,6.8,1.9,8,4h0.1V12.3H206.5z M201.7,35.4c0-0.6-0.1-1.4-0.2-2 c-0.7-3.1-3.3-5.6-6.9-5.6c-5,0-7.9,4.4-7.9,10.2c0,5.3,2.6,9.8,7.8,9.8c3.2,0,6.2-2.1,7.1-5.7c0.2-0.7,0.2-1.3,0.2-2.1V35.4z"/><path fill="#FFFFFF" d="M42.8,64c0.1,1.6-1.1,2.9-3.1,2.9c-1.7,0-2.9-1.3-2.9-2.9c0-1.7,1.3-3,3-3C41.7,61,42.8,62.3,42.8,64z M37.4,97.8V71.4h4.8v26.4H37.4z"/><path fill="#FFFFFF" d="M47.5,78.6c0-2.7-0.1-5-0.2-7.1h4.3l0.3,4.4h0.1c1.3-2.5,4.4-5,8.8-5c3.7,0,9.4,2.2,9.4,11.2v15.8h-4.8 V82.6c0-4.3-1.6-7.8-6.1-7.8c-3.2,0-5.6,2.2-6.5,4.9c-0.2,0.6-0.3,1.4-0.3,2.2v15.9h-4.8V78.6z"/><path fill="#FFFFFF" d="M84,61.6c2.9-0.4,6.3-0.8,10.1-0.8c6.8,0,11.7,1.6,14.9,4.6c3.3,3,5.2,7.3,5.2,13.2c0,6-1.9,10.9-5.3,14.3 c-3.4,3.4-9.1,5.3-16.3,5.3c-3.4,0-6.2-0.2-8.6-0.4V61.6z M88.8,94.1c1.2,0.2,3,0.3,4.8,0.3c10.2,0,15.7-5.7,15.7-15.6 c0.1-8.7-4.9-14.2-14.9-14.2c-2.5,0-4.3,0.2-5.6,0.5V94.1z"/><path fill="#FFFFFF" d="M132.1,97.8l-0.4-3.3h-0.2c-1.5,2.1-4.3,3.9-8.1,3.9c-5.4,0-8.1-3.8-8.1-7.6c0-6.4,5.7-9.9,15.9-9.8v-0.5 c0-2.2-0.6-6.1-6-6.1c-2.5,0-5,0.8-6.9,2l-1.1-3.2c2.2-1.4,5.4-2.3,8.7-2.3c8.1,0,10.1,5.5,10.1,10.8v9.9c0,2.3,0.1,4.5,0.4,6.3 H132.1z M131.4,84.4c-5.3-0.1-11.2,0.8-11.2,5.9c0,3.1,2.1,4.6,4.5,4.6c3.4,0,5.6-2.2,6.4-4.4c0.2-0.5,0.3-1,0.3-1.5V84.4z"/><path fill="#FFFFFF" d="M146.6,63.9v7.6h6.9v3.7h-6.9v14.2c0,3.3,0.9,5.1,3.6,5.1c1.3,0,2.2-0.2,2.8-0.3l0.2,3.6 c-0.9,0.4-2.4,0.7-4.3,0.7c-2.2,0-4-0.7-5.2-2c-1.4-1.4-1.9-3.8-1.9-6.9V75.1h-4.1v-3.7h4.1v-6.3L146.6,63.9z"/><path fill="#FFFFFF" d="M171.4,97.8l-0.4-3.3h-0.2c-1.5,2.1-4.3,3.9-8.1,3.9c-5.4,0-8.1-3.8-8.1-7.6c0-6.4,5.7-9.9,15.9-9.8v-0.5 c0-2.2-0.6-6.1-6-6.1c-2.5,0-5,0.8-6.9,2l-1.1-3.2c2.2-1.4,5.4-2.3,8.7-2.3c8.1,0,10.1,5.5,10.1,10.8v9.9c0,2.3,0.1,4.5,0.4,6.3 H171.4z M170.7,84.4c-5.3-0.1-11.2,0.8-11.2,5.9c0,3.1,2.1,4.6,4.5,4.6c3.4,0,5.6-2.2,6.4-4.4c0.2-0.5,0.3-1,0.3-1.5V84.4z"/></g></g></a></g><a href="https://ourworldindata.org/grapher/population-by-per-capita-household-income?country=USA" target="_blank"><text font-size="27.00" x="15.0" y="36.6" fill="#555"><tspan x="15" y="36.6">Population by per capita household income, United States</tspan></text></a><text font-size="14.40" x="15.0" y="55.5" fill="#666"><tspan x="15" y="55.519999999999996">Income brackets are in 'international dollars' at constant 2011 PPP prices. This means all estimates account for</tspan><tspan x="15" y="71.36">cross-country differences in price levels, as well as for inflation.</tspan></text></g><g class="StackedArea"><defs><clipPath id="boundsClip-1"><rect x="97.598" y="0" width="820" height="925.2"></rect></clipPath></defs><g class="AxisBoxView"><g class="HorizontalAxis"><text x="97.6" y="556.5" fill="#666" text-anchor="middle" font-size="16.2">1981</text><text x="172.6" y="556.5" fill="#666" text-anchor="middle" font-size="16.2">1985</text><text x="266.3" y="556.5" fill="#666" text-anchor="middle" font-size="16.2">1990</text><text x="360.1" y="556.5" fill="#666" text-anchor="middle" font-size="16.2">1995</text><text x="453.8" y="556.5" fill="#666" text-anchor="middle" font-size="16.2">2000</text><text x="547.5" y="556.5" fill="#666" text-anchor="middle" font-size="16.2">2005</text><text x="641.3" y="556.5" fill="#666" text-anchor="middle" font-size="16.2">2010</text><text x="697.5" y="556.5" fill="#666" text-anchor="middle" font-size="16.2">2013</text></g><g class="VerticalAxis"><text x="92.60" y="535.3" fill="#666" dominant-baseline="middle" text-anchor="end" font-size="16.2">0</text><text x="92.60" y="465.5" fill="#666" dominant-baseline="middle" text-anchor="end" font-size="16.2">50 million</text><text x="92.60" y="395.7" fill="#666" dominant-baseline="middle" text-anchor="end" font-size="16.2">100 million</text><text x="92.60" y="325.9" fill="#666" dominant-baseline="middle" text-anchor="end" font-size="16.2">150 million</text><text x="92.60" y="256.1" fill="#666" dominant-baseline="middle" text-anchor="end" font-size="16.2">200 million</text><text x="92.60" y="186.3" fill="#666" dominant-baseline="middle" text-anchor="end" font-size="16.2">250 million</text><text x="92.60" y="116.5" fill="#666" dominant-baseline="middle" text-anchor="end" font-size="16.2">300 million</text></g><g class="AxisGridLines"><line x1="97.60" y1="535.3" x2="697.50" y2="535.3" stroke="#ccc"></line><line x1="97.60" y1="465.5" x2="697.50" y2="465.5" stroke="#ddd" stroke-dasharray="3,2"></line><line x1="97.60" y1="395.7" x2="697.50" y2="395.7" stroke="#ddd" stroke-dasharray="3,2"></line><line x1="97.60" y1="325.9" x2="697.50" y2="325.9" stroke="#ddd" stroke-dasharray="3,2"></line><line x1="97.60" y1="256.1" x2="697.50" y2="256.1" stroke="#ddd" stroke-dasharray="3,2"></line><line x1="97.60" y1="186.3" x2="697.50" y2="186.3" stroke="#ddd" stroke-dasharray="3,2"></line><line x1="97.60" y1="116.5" x2="697.50" y2="116.5" stroke="#ddd" stroke-dasharray="3,2"></line></g><g class="AxisGridLines"><line x1="172.6" y1="535.30" x2="172.6" y2="93.90" stroke="#ddd" stroke-dasharray="3,2"></line><line x1="266.3" y1="535.30" x2="266.3" y2="93.90" stroke="#ddd" stroke-dasharray="3,2"></line><line x1="360.1" y1="535.30" x2="360.1" y2="93.90" stroke="#ddd" stroke-dasharray="3,2"></line><line x1="453.8" y1="535.30" x2="453.8" y2="93.90" stroke="#ddd" stroke-dasharray="3,2"></line><line x1="547.5" y1="535.30" x2="547.5" y2="93.90" stroke="#ddd" stroke-dasharray="3,2"></line><line x1="641.3" y1="535.30" x2="641.3" y2="93.90" stroke="#ddd" stroke-dasharray="3,2"></line></g></g><g clip-path="url(#boundsClip-1)"><g class="HeightedLegend clickable"><g class="legendMark"><rect x="702.496" y="520.9000000000001" width="132.50400000000002" height="14.4" fill="#fff" opacity="0"></rect><rect x="702.496" y="526.8500000000001" width="10" height="2.5" fill="#3360a9"></rect><text font-size="14.40" x="717.5" y="532.4" fill="#333"><tspan x="717.496" y="532.4200000000001">below 1.25$ a day</tspan></text></g><g class="legendMark"><rect x="702.496" y="506.5000000000001" width="123.72000000000001" height="14.4" fill="#fff" opacity="0"></rect><rect x="702.496" y="512.4500000000002" width="10" height="2.5" fill="#ca2628"></rect><text font-size="14.40" x="717.5" y="518.0" fill="#333"><tspan x="717.496" y="518.0200000000001">1.25 - 1.9$ a day</tspan></text></g><g class="legendMark"><rect x="702.496" y="492.10000000000014" width="123.72000000000001" height="14.4" fill="#fff" opacity="0"></rect><rect x="702.496" y="498.0500000000001" width="10" height="2.5" fill="#ffd53e"></rect><text font-size="14.40" x="717.5" y="503.6" fill="#333"><tspan x="717.496" y="503.6200000000001">1.9 - 3.10$ a day</tspan></text></g><g class="legendMark"><rect x="702.496" y="477.70000000000016" width="119.68800000000002" height="14.4" fill="#fff" opacity="0"></rect><rect x="702.496" y="483.65000000000015" width="10" height="2.5" fill="#9ecc8a"></rect><text font-size="14.40" x="717.5" y="489.2" fill="#333"><tspan x="717.496" y="489.22000000000014">3.10 - 10$ a day</tspan></text></g><g class="legendMark"><rect x="702.496" y="299.3" width="122.13600000000001" height="14.4" fill="#fff" opacity="0"></rect><rect x="702.496" y="305.25" width="10" height="2.5" fill="#34983f"></rect><text font-size="14.40" x="717.5" y="310.8" fill="#333"><tspan x="717.496" y="310.82">above 10$ a day</tspan></text></g></g><g class="Areas"><rect x="97.598" y="93.9" width="599.898" height="441.4000000000001" opacity="0" fill="rgba(255,255,255,0)"></rect><path stroke-linecap="round" d="M97.6 534.2L153.8 534.2L210.1 534.2L266.3 534.2L322.6 533.3L378.8 532.8L435 532.7L491.3 532L547.5 531.2L603.8 531.1L641.3 531L660 530.9L678.7 530.9L697.5 530.9L697.496 535.3000000000001L97.598 535.3000000000001" fill="#3360a9" fill-opacity="0.7" class="United-States_4-area"></path><path stroke-linecap="round" d="M97.6 533.2L153.8 533.1L210.1 533L266.3 533L322.6 532.9L378.8 532.8L435 532.7L491.3 532L547.5 531.2L603.8 531.1L641.3 531L660 530.9L678.7 530.9L697.5 530.9L697.5 530.9L678.7 530.9L660 530.9L641.3 531L603.8 531.1L547.5 531.2L491.3 532L435 532.7L378.8 532.8L322.6 533.3L266.3 534.2L210.1 534.2L153.8 534.2L97.6 534.2" fill="#ca2628" fill-opacity="0.7" class="United-States_3-area"></path><path stroke-linecap="round" d="M97.6 532.9L153.8 533.1L210.1 533L266.3 533L322.6 532.1L378.8 531.5L435 531.4L491.3 530.6L547.5 529.8L603.8 529.6L641.3 529.5L660 529.5L678.7 529.4L697.5 529.3L697.5 530.9L678.7 530.9L660 530.9L641.3 531L603.8 531.1L547.5 531.2L491.3 532L435 532.7L378.8 532.8L322.6 532.9L266.3 533L210.1 533L153.8 533.1L97.6 533.2" fill="#ffd53e" fill-opacity="0.7" class="United-States_2-area"></path><path stroke-linecap="round" d="M97.6 522.2L153.8 521.5L210.1 520.6L266.3 521.6L322.6 520L378.8 520.3L435 521.9L491.3 521.2L547.5 520.2L603.8 519.3L641.3 518L660 518.4L678.7 518.7L697.5 519.1L697.5 529.3L678.7 529.4L660 529.5L641.3 529.5L603.8 529.6L547.5 529.8L491.3 530.6L435 531.4L378.8 531.5L322.6 532.1L266.3 533L210.1 533L153.8 533.1L97.6 532.9" fill="#9ecc8a" fill-opacity="0.7" class="United-States_1-area"></path><path stroke-linecap="round" d="M97.6 215L153.8 206.1L210.1 197.1L266.3 186.8L322.6 172.5L378.8 159.2L435 145.8L491.3 133.8L547.5 122.8L603.8 110.8L641.3 103.5L660 100.2L678.7 97L697.5 93.9L697.5 519.1L678.7 518.7L660 518.4L641.3 518L603.8 519.3L547.5 520.2L491.3 521.2L435 521.9L378.8 520.3L322.6 520L266.3 521.6L210.1 520.6L153.8 521.5L97.6 522.2" fill="#34983f" fill-opacity="0.7" class="United-States_0-area"></path><path stroke-linecap="round" d="M97.6 534.2L153.8 534.2L210.1 534.2L266.3 534.2L322.6 533.3L378.8 532.8L435 532.7L491.3 532L547.5 531.2L603.8 531.1L641.3 531L660 530.9L678.7 530.9L697.5 530.9" stroke="rgb(43, 80, 141)" stroke-opacity="0.7" stroke-width="0.5" fill="none" class="United-States_4-border"></path><path stroke-linecap="round" d="M97.6 533.2L153.8 533.1L210.1 533L266.3 533L322.6 532.9L378.8 532.8L435 532.7L491.3 532L547.5 531.2L603.8 531.1L641.3 531L660 530.9L678.7 530.9L697.5 530.9" stroke="rgb(169, 32, 33)" stroke-opacity="0.7" stroke-width="0.5" fill="none" class="United-States_3-border"></path><path stroke-linecap="round" d="M97.6 532.9L153.8 533.1L210.1 533L266.3 533L322.6 532.1L378.8 531.5L435 531.4L491.3 530.6L547.5 529.8L603.8 529.6L641.3 529.5L660 529.5L678.7 529.4L697.5 529.3" stroke="rgb(213, 178, 52)" stroke-opacity="0.7" stroke-width="0.5" fill="none" class="United-States_2-border"></path><path stroke-linecap="round" d="M97.6 522.2L153.8 521.5L210.1 520.6L266.3 521.6L322.6 520L378.8 520.3L435 521.9L491.3 521.2L547.5 520.2L603.8 519.3L641.3 518L660 518.4L678.7 518.7L697.5 519.1" stroke="rgb(132, 171, 115)" stroke-opacity="0.7" stroke-width="0.5" fill="none" class="United-States_1-border"></path><path stroke-linecap="round" d="M97.6 215L153.8 206.1L210.1 197.1L266.3 186.8L322.6 172.5L378.8 159.2L435 145.8L491.3 133.8L547.5 122.8L603.8 110.8L641.3 103.5L660 100.2L678.7 97L697.5 93.9" stroke="rgb(44, 127, 53)" stroke-opacity="0.7" stroke-width="0.5" fill="none" class="United-States_0-border"></path></g></g></g><g style="fill: #777;" class="SourcesFooter"><g style="fill: #777;" class="clickable"><text font-size="12.60" x="15.0" y="581.6"><tspan x="15" y="581.58">Source: World Bank</tspan></text></g><text font-size="12.60" x="649.0" y="581.6"><tspan x="649.024" y="581.58"><a target='_blank' style='fill: #777;' href='https://ourworldindata.org'>OurWorldInData.org</a> • <a style="fill: #777;" href="http://creativecommons.org/licenses/by-sa/4.0/deed.en_US" target="_blank">CC BY-SA</a></tspan></text></g></g></svg>
